X: 19029
T: Intruder, The
R: mazurka
M: 3/4
K: Adorian
A2 Ae ed|c2 ce fg|[M:8/8] af2 d2f ec|[M:3/4] e2 dc BG|
A2 Ae ed|c2 ce fg|[M:8/8] a2f d2f ec|[M:3/4] e2 dc B2:|
eA AB c2|d3 e fg|[M:8/8] af2 d2f ec|[M:3/4] e2 dc BA|
eA AB c2|d3 e fg|[M:8/8] a2f d2f ec|[M:3/4] e2 dc B2:|

